public/images/company.svg

<svg height="43" viewBox="0 0 156 43" width="156" xmlns="http://www.w3.org/2000/svg"><g fill-rule="evenodd"><path d="m30.1949615 15.6939432c-1.1149295 3.0501997-2.1526345 5.8758783-3.1806864 8.7046862-2.0086429 5.5261888-4.0084371 11.0562892-6.0178844 16.5816957-.7191536 1.9792268-.7794853 2.0167773-2.9184446 2.0144304-.8744072-.0007823-1.7488144-.0352036-2.6232217-.0273806-.538963.0046938-.9057796-.1900997-1.0940145-.6907736-.6330805-1.6819516-1.2959246-3.3537332-1.9008502-5.0458548-2.3119102-6.4751224-4.60773185-12.955721-6.9059668-19.4355372-1.49381249-4.212702-2.98601614-8.42618631-4.46695788-12.64279982-.36118568-1.03029313-.69904311-2.0691916-1.00231037-3.1174777-.2686771-.92702913.10377049-1.51062721 1.09803664-1.54739546 1.96922617-.07353648 3.94247445-.03755054 5.91411388-.06649576.84303473-.01329915 1.25972556.42557287 1.49622576 1.15233241.57194436 1.75314117 1.16158602 3.50237081 1.75042327 5.25003585 2.3505224 6.97501408 4.7026536 13.94924588 7.0547849 20.92269538.0764201.2268679.1624933.4506066.2928098.8073368.1311208-.2792822.2284559-.449042.2936142-.629754 2.7599734-7.6063327 5.5175336-15.2134476 8.2734849-22.82056261.4963286-1.37059497.9878308-2.74275454 1.4809417-4.1141318.2300648-.64148851.6507778-1.00134792 1.390042-.98100804.7979871.02268679 1.5983874.02503369 2.3955701-.00625843.8148799-.03207442 1.2355929.38489311 1.4704842 1.08036053.6210142 1.84075911 1.2436371 3.6799536 1.8751088 5.5175835 1.1696302 3.3998891 2.3521312 6.79508435 3.5169349 10.19575585 1.2589212 3.676042 2.5025583 7.3567779 3.755044 11.0351669.0683759.2010519.1480138.4005392.2678727.7220658.135143-.2847583.2365002-.4623411.3056805-.6516585 2.7543425-7.6094619 5.5070762-15.2197061 8.2565921-22.83073254.4207129-1.16406696.8277507-2.33282773 1.2355929-3.50158851.2598284-.7416233.7247846-1.17345459 1.5903432-1.16250234 1.7978842.02033987 3.598986-.05554352 5.3944569.01799297 1.4922037.06336654 1.8630424.68686208 1.3506253 2.08483766-1.1310179 3.07992715-2.2789288 6.15359588-3.433275 9.22491766-2.2210104 5.9157758-4.4548915 11.82764-6.6759019 17.7426335-1.4688754 3.9130799-2.9208579 7.8332005-4.3889289 11.7462805-.6403203 1.7054206-.736851 1.765658-2.5636944 1.7719164-.8494701.0031292-1.7021579-.0524143-2.5484103 0-.8993443.0571081-1.3852155-.3543833-1.6595235-1.1265164-.4400191-1.2360388-.9041709-2.4634724-1.3361457-3.7018581-2.349718-6.745017-4.693805-13.4908163-7.0354788-20.2381802-.2348913-.6782568-.4335837-1.3682481-.7070873-2.2342576"/><path d="m99.4553253 14.0391208c3.5777407.0954259 6.1745657 1.7411449 7.8773487 4.8508192.462816-.5445338.877455-.9913696 1.244707-1.4715288 1.431886-1.8683795 3.427681-2.8430875 5.740971-3.2202472 2.675803-.4369902 5.238666-.1029994 7.497461 1.4624406 1.988687 1.3783749 2.887466 3.3732316 3.252348 5.6240723.116889.7172094.173754 1.450323.176123 2.1766206.017375 5.2469126.014216 10.4938252.016586 15.7407378 0 .1416243-.010268.2824912-.018166.423358-.061603 1.107244-.367251 1.448051-1.505336 1.4768302-1.495069.0378675-2.993298.0371101-4.489157.0007574-1.198109-.0287793-1.542457-.438505-1.544826-1.7517478-.008688-4.0942278.017375-8.1884555-.017375-12.2826832-.010268-1.1458688-.096355-2.3053698-.307228-3.4323049-.293012-1.5714988-1.221013-2.7522056-2.917478-3.0967993-1.879696-.3817038-3.632237-.0908819-4.914063 1.4533524-.967491 1.1663172-1.355277 2.5719566-1.385289 4.0162208-.085297 4.1389113-.083718 8.2800946-.119258 12.4197633-.004739.4945488-.023694.9883402-.044228 1.4821316-.028433.6505627-.349087 1.1186043-1.052788 1.1314792-1.786501.0333233-3.574582.0272645-5.361083-.0030294-.621564-.0113602-.97223-.4006375-1.034623-.9974284-.03633-.3498952-.07582-.7005477-.07582-1.0512002-.006318-4.0472721.014216-8.0953015-.016585-12.1418163-.007898-1.0057592-.097934-2.0228787-.283534-3.0119762-.4770325-2.5454494-3.0659587-3.9980445-5.6572542-3.2346368-2.2027197.6505626-3.4648015 2.184194-3.5848493 4.6387615-.1295253 2.6295151-.1287355 5.2658463-.1579577 7.8983908-.0229039 2.0463566.0015796 4.0934704-.0078979 6.1413416-.0071081 1.482889-.3712005 1.8274827-1.9176061 1.8350562-1.324475.0068162-2.6505297.0159043-3.9750047-.0045441-1.2747184-.0204484-1.6340721-.3317188-1.6459189-1.5571092-.0323813-3.3883786-.0252732-6.7759999-.0284324-10.1643785-.0031591-4.1184629-.0071081-8.2354111.0031592-12.3538739.0039489-1.9221513.2558914-2.1660177 2.2414193-2.1690471 1.3236852-.0015147 2.6497399-.0015147 3.9694762.0825511 1.0180372.0643746 1.2557635.3476231 1.3347423 1.3306618.0402792.5043944.0071081 1.0133328.0071081 1.7472038 2.3377735-2.7953745 5.2039154-4.0813528 8.7003084-3.9881989z"/><path d="m74.2573338 24.8593087c-.3715198-3.2760554-3.1235189-5.4767169-6.5810999-5.31307-2.9186478.137931-5.4848869 2.5747116-5.5682113 5.31307zm-12.5231244 4.8073231c.122311 2.3440473.5282309 4.458989 2.3583102 5.9435003 2.7114835 2.1991029 7.2790375 1.6551717 9.422539-1.1517626.6428975-.8416127 1.2919106-1.1439699 2.3116791-.8914861 1.1252619.2781998 2.2910392.3818428 3.4254744.626534 1.2177596.261835 1.5166572.9039544.9830752 2.0681853-.8638219 1.8842774-2.2918036 3.2698213-4.0011008 4.3187202-1.0251197.6280924-2.1626126 1.0824074-3.28023 1.5351639-2.4951458 1.0114938-5.1034293 1.118254-7.6696684.5096433-2.6549146-.6304303-5.1829315-1.6497168-7.202593-3.6641325-2.0104882-2.0058437-3.1747367-4.4543133-3.5990032-7.2456622-.7086397-4.6647165-.0703289-9.0613637 2.7993946-12.9358994 1.5097772-2.0370145 3.5141499-3.3415142 5.9022735-4.0428582 3.1785588-.9335667 6.3754644-.9756473 9.5402633.0093513 4.374914 1.3621658 6.832602 4.6062711 8.0205483 8.9288877.3783998 1.3793097.4907731 2.8536905.5718042 4.2922249.0703289 1.2522886-.2522666 1.5156822-1.4662039 1.6458204-.376871.0405221-.7583286.0514319-1.137493.0514319-5.3449936.0031171-10.6892229.0023378-16.0334521.0023378z"/><path d="m155.165967 32.3074084c-.020488 5.0488066-2.800225 8.3640141-8.058126 9.8869328-3.03706.8795909-6.097066 1.0503926-9.151336.4559727-2.867424-.5567983-5.592255-1.5439868-7.556592-3.7267868-1.462804-1.6252492-2.23723-3.5364219-2.271649-5.6071098-.087686-5.2113316-.061463-10.4234156-.051629-15.636252.003278-1.4363892.269615-1.7110262 1.803716-1.7554196 1.598841-.0466507 3.202599.0338593 4.803898.0662138.696574.0135438 1.073543.367186 1.151395.9894457.042614.3468704.074574.6975028.075394 1.045878.004917 4.2768133-.005737 8.5551314.013112 12.8326971.002458.6726726.061462 1.3588889.213069 2.0157605.517104 2.2309555 2.348682 3.6522961 4.85143 3.7358159.853917.0285923 1.740614-.021068 2.567487-.2061659 2.101194-.4710213 3.448449-2.0383334 3.633655-4.192541.109813-1.2783789.124564-2.565787.131939-3.8494329.01639-3.342295.005737-6.6853424.005737-10.0276373 0-.1866027-.00082-.3739578.003278-.5605605.036058-1.5379673.289283-1.8208811 1.940571-1.8622647 1.473458-.0361167 2.953472-.0293448 4.424471.0564322 1.165326.0677187 1.445595.3965307 1.462804 1.4732584.026224 1.5665596.010654 3.1323669.011473 4.6989265.001639 1.051145.00082 2.1037949.00082 3.1549399-.003278 2.3370482.004097 4.6748488-.004917 7.011897z"/></g></svg>

<svg width="156px" height="43px" viewBox="0 0 156 43" version="1.1" xmlns="http://www.w3.org/2000/svg" xmlns:xlink="http://www.w3.org/1999/xlink">
    <!-- Generator: Sketch 51.3 (57544) - http://www.bohemiancoding.com/sketch -->
    <desc>Created with Sketch.</desc>
    <defs></defs>
    <g id="web" stroke="none" stroke-width="1" fill="none" fill-rule="evenodd">
        <g id="Desktop-HD" transform="translate(-628.000000, -5946.000000)" fill="#000000">
            <g id="Group-2" transform="translate(628.000000, 5946.000000)">
                <path d="M30.1949615,15.6939432 C29.080032,18.7441429 28.042327,21.5698215 27.0142751,24.3986294 C25.0056322,29.9248182 23.005838,35.4549186 20.9963907,40.9803251 C20.2772371,42.9595519 20.2169054,42.9971024 18.0779461,42.9947555 C17.2035389,42.9939732 16.3291317,42.9595519 15.4547244,42.9673749 C14.9157614,42.9720687 14.5489448,42.7772752 14.3607099,42.2766013 C13.7276294,40.5946497 13.0647853,38.9228681 12.4598597,37.2307465 C10.1479495,30.7556241 7.85212785,24.2750255 5.5538929,17.7952093 C4.06008041,13.5825073 2.56787676,9.36902299 1.08693502,5.15240948 C0.725749342,4.12211635 0.387891911,3.08321788 0.0846246468,2.03493178 C-0.184052452,1.10790265 0.188395143,0.524304567 1.18266129,0.487536323 C3.15188746,0.413999835 5.12513574,0.449985776 7.09677517,0.421040563 C7.9398099,0.407741411 8.35650073,0.846613429 8.59300093,1.57337297 C9.16494529,3.32651414 9.75458695,5.07574378 10.3434242,6.82340882 C12.6939466,13.7984229 15.0460778,20.7726547 17.3982091,27.7461042 C17.4746292,27.9729721 17.5607024,28.1967108 17.6910189,28.553441 C17.8221397,28.2741588 17.9194748,28.104399 17.9846331,27.923687 C20.7446065,20.3173543 23.5021667,12.7102394 26.258118,5.10312439 C26.7544466,3.73252942 27.2459488,2.36036985 27.7390597,0.988992586 C27.9691245,0.347504075 28.3898375,-0.0123553333 29.1291017,0.00798454628 C29.9270888,0.0306713351 30.7274891,0.0330182443 31.5246718,0.00172612178 C32.3395517,-0.0303483038 32.7602647,0.386619228 32.995156,1.08208665 C33.6161702,2.92284576 34.2387931,4.76204025 34.8702648,6.59967015 C36.039895,9.99955925 37.222396,13.3947545 38.3871997,16.795426 C39.6461209,20.471468 40.889758,24.1522039 42.1422437,27.8305929 C42.2106196,28.0316448 42.2902575,28.2311321 42.4101164,28.5526587 C42.5452594,28.2679004 42.6466166,28.0903176 42.7157969,27.9010002 C45.4701394,20.2915383 48.2228731,12.6812941 50.972389,5.07026766 C51.3931019,3.9062007 51.8001397,2.73743993 52.2079819,1.56867915 C52.4678103,0.827055852 52.9327665,0.395224562 53.7983251,0.406176805 C55.5962093,0.426516684 57.3973111,0.350633287 59.192782,0.424169775 C60.6849857,0.487536323 61.0558244,1.11103186 60.5434073,2.50900744 C59.4123894,5.58893459 58.2644785,8.66260332 57.1101323,11.7339251 C54.8891219,17.6497009 52.6552408,23.5615651 50.4342304,29.4765586 C48.965355,33.3896385 47.5133725,37.3097591 46.0453015,41.2228391 C45.4049812,42.9282597 45.3084505,42.9884971 43.4816071,42.9947555 C42.632137,42.9978847 41.7794492,42.9423412 40.9331968,42.9947555 C40.0338525,43.0518636 39.5479813,42.6403722 39.2736733,41.8682391 C38.8336542,40.6322003 38.3695024,39.4047667 37.9375276,38.166381 C35.5878096,31.421364 33.2437226,24.6755647 30.9020488,17.9282008 C30.6671575,17.249944 30.4684651,16.5599527 30.1949615,15.6939432" id="Fill-1"></path>
                <path d="M99.4553253,14.0391208 C103.033066,14.1345467 105.629891,15.7802657 107.332674,18.88994 C107.79549,18.3454062 108.210129,17.8985704 108.577381,17.4184112 C110.009267,15.5500317 112.005062,14.5753237 114.318352,14.198164 C116.994155,13.7611738 119.557018,14.0951646 121.815813,15.6606046 C123.8045,17.0389795 124.703279,19.0338362 125.068161,21.2846769 C125.18505,22.0018863 125.241915,22.7349999 125.244284,23.4612975 C125.261659,28.7082101 125.2585,33.9551227 125.26087,39.2020353 C125.26087,39.3436596 125.250602,39.4845265 125.242704,39.6253933 C125.181101,40.7326373 124.875453,41.0734443 123.737368,41.1022235 C122.242299,41.140091 120.74407,41.1393336 119.248211,41.1029809 C118.050102,41.0742016 117.705754,40.6644759 117.703385,39.3512331 C117.694697,35.2570053 117.72076,31.1627776 117.68601,27.0685499 C117.675742,25.9226811 117.589655,24.7631801 117.378782,23.636245 C117.08577,22.0647462 116.157769,20.8840394 114.461304,20.5394457 C112.581608,20.1577419 110.829067,20.4485638 109.547241,21.9927981 C108.57975,23.1591153 108.191964,24.5647547 108.161952,26.0090189 C108.076655,30.1479302 108.078234,34.2891135 108.042694,38.4287822 C108.037955,38.923331 108.019,39.4171224 107.998466,39.9109138 C107.970033,40.5614765 107.649379,41.0295181 106.945678,41.042393 C105.159177,41.0757163 103.371096,41.0696575 101.584595,41.0393636 C100.963031,41.0280034 100.612365,40.6387261 100.549972,40.0419352 C100.513642,39.69204 100.474152,39.3413875 100.474152,38.990735 C100.467834,34.9434629 100.488368,30.8954335 100.457567,26.8489187 C100.449669,25.8431595 100.359633,24.82604 100.174033,23.8369425 C99.6970005,21.2914931 97.1080743,19.838898 94.5167788,20.6023057 C92.3140591,21.2528683 91.0519773,22.7864997 90.9319295,25.2410672 C90.8024042,27.8705823 90.803194,30.5069135 90.7739718,33.139458 C90.7510679,35.1858146 90.7755514,37.2329284 90.7660739,39.2807996 C90.7589658,40.7636886 90.3948734,41.1082823 88.8484678,41.1158558 C87.5239928,41.122672 86.1979381,41.1317601 84.8734631,41.1113117 C83.5987447,41.0908633 83.239391,40.7795929 83.2275442,39.5542025 C83.1951629,36.1658239 83.202271,32.7782026 83.1991118,29.389824 C83.1959527,25.2713611 83.1920037,21.1544129 83.202271,17.0359501 C83.2062199,15.1137988 83.4581624,14.8699324 85.4436903,14.866903 C86.7673755,14.8653883 88.0934302,14.8653883 89.4131665,14.9494541 C90.4312037,15.0138287 90.66893,15.2970772 90.7479088,16.2801159 C90.788188,16.7845103 90.7550169,17.2934487 90.7550169,18.0273197 C93.0927904,15.2319452 95.9589323,13.9459669 99.4553253,14.0391208 Z" id="Fill-3"></path>
                <path d="M74.2573338,24.8593087 C73.885814,21.5832533 71.1338149,19.3825918 67.6762339,19.5462387 C64.7575861,19.6841697 62.191347,22.1209503 62.1080226,24.8593087 L74.2573338,24.8593087 Z M61.7342094,29.6666318 C61.8565204,32.0106791 62.2624403,34.1256208 64.0925196,35.6101321 C66.8040031,37.809235 71.3715571,37.2653038 73.5150586,34.4583695 C74.1579561,33.6167568 74.8069692,33.3143996 75.8267377,33.5668834 C76.9519996,33.8450832 78.1177769,33.9487262 79.2522121,34.1934174 C80.4699717,34.4552524 80.7688693,35.0973718 80.2352873,36.2616027 C79.3714654,38.1458801 77.9434837,39.531424 76.2341865,40.5803229 C75.2090668,41.2084153 74.0715739,41.6627303 72.9539565,42.1154868 C70.4588107,43.1269806 67.8505272,43.2337408 65.2842881,42.6251301 C62.6293735,41.9946998 60.1013566,40.9754133 58.0816951,38.9609976 C56.0712069,36.9551539 54.9069584,34.5066843 54.4826919,31.7153354 C53.7740522,27.0506189 54.412363,22.6539717 57.2820865,18.779436 C58.7918637,16.7424215 60.7962364,15.4379218 63.18436,14.7365778 C66.3629188,13.8030111 69.5598244,13.7609305 72.7246233,14.7459291 C77.0995373,16.1080949 79.5572253,19.3522002 80.7451716,23.6748168 C81.1235714,25.0541265 81.2359447,26.5285073 81.3169758,27.9670417 C81.3873047,29.2193303 81.0647092,29.4827239 79.8507719,29.6128621 C79.4739009,29.6533842 79.0924433,29.664294 78.7132789,29.664294 C73.3682853,29.6674111 68.024056,29.6666318 62.6798268,29.6666318 L61.7342094,29.6666318 Z" id="Fill-5"></path>
                <path d="M155.165967,32.3074084 C155.145479,37.356215 152.365742,40.6714225 147.107841,42.1943412 C144.070781,43.0739321 141.010775,43.2447338 137.956505,42.6503139 C135.089081,42.0935156 132.36425,41.1063271 130.399913,38.9235271 C128.937109,37.2982779 128.162683,35.3871052 128.128264,33.3164173 C128.040578,28.1050857 128.066801,22.8930017 128.076635,17.6801653 C128.079913,16.2437761 128.34625,15.9691391 129.880351,15.9247457 C131.479192,15.878095 133.08295,15.958605 134.684249,15.9909595 C135.380823,16.0045033 135.757792,16.3581455 135.835644,16.9804052 C135.878258,17.3272756 135.910218,17.677908 135.911038,18.0262832 C135.915955,22.3030965 135.905301,26.5814146 135.92415,30.8589803 C135.926608,31.5316529 135.985612,32.2178692 136.137219,32.8747408 C136.654323,35.1056963 138.485901,36.5270369 140.988649,36.6105567 C141.842566,36.639149 142.729263,36.5894887 143.556136,36.4043908 C145.65733,35.9333695 147.004585,34.3660574 147.189791,32.2118498 C147.299604,30.9334709 147.314355,29.6460628 147.32173,28.3624169 C147.33812,25.0201219 147.327467,21.6770745 147.327467,18.3347796 C147.327467,18.1481769 147.326647,17.9608218 147.330745,17.7742191 C147.366803,16.2362518 147.620028,15.953338 149.271316,15.9119544 C150.744774,15.8758377 152.224788,15.8826096 153.695787,15.9683866 C154.861113,16.0361053 155.141382,16.3649173 155.158591,17.441645 C155.184815,19.0082046 155.169245,20.5740119 155.170064,22.1405715 C155.171703,23.1917165 155.170884,24.2443664 155.170884,25.2955114 C155.167606,27.6325596 155.174981,29.9703602 155.165967,32.3074084 Z" id="Fill-7"></path>
            </g>
        </g>
    </g>
</svg>
